X:4
M:4/4
K:A
L: 1/8
T:Folk Song (violin)
vA2 AB c2 A2 | B2 G2 A4 | vc2 cd e2 c2 |
d2 e2 c4 | vee ee e2 fe | d2 ed c4 | ucc cc c2 dc |
B2 cB A4 | AA AA AA AA | E2 EE A4 |]

